neru-light-classic/22x22/actions/online-banking.svg

<svg xmlns="http://www.w3.org/2000/svg" width="22" height="22" version="1.1">
 <defs>
  <style id="current-color-scheme" type="text/css">
   .ColorScheme-Text { color:#1e333d; } .ColorScheme-Highlight { color:#3fb7ff; }
  </style>
 </defs>
 <path style="fill:currentColor" class="ColorScheme-Text" d="M 11.007812 3 C 10.841504 3.00989 10.67618 3.1128756 10.408203 3.2734375 L 7.5 5.015625 L 4.6015625 6.7519531 C 3.9633645 7.1101681 4.049715 6.9484752 4 7.6347656 L 4 8.8925781 C 4 8.9521561 4.0380375 9 4.0859375 9 L 5 9 L 5 9.4277344 L 5 16.572266 L 5 17 L 4.7675781 17 C 4.3425911 17 4 17.378053 4 17.847656 L 4 19 L 13.541016 19 A 4 4 0 0 1 13 17 A 4 4 0 0 1 13.132812 16 L 12 16 L 12 10 L 15 10 L 15 13.541016 A 4 4 0 0 1 17 13 L 17 9.4277344 L 17 9 L 17.914062 9 C 17.961962 9 18 8.952156 18 8.8925781 L 18 7.6621094 C 17.9986 6.9382548 17.98313 7.1026425 17.375 6.7382812 L 14.5 5.015625 L 11.607422 3.2832031 C 11.339759 3.0735795 11.174122 2.9901146 11.007812 3 z M 7 10 L 10 10 L 10 16 L 7 16 L 7 10 z"/>
 <path style="fill:currentColor" class="ColorScheme-Text" d="m 17,14 c -1.656857,0 -3,1.343143 -3,3 0,1.656857 1.343143,3 3,3 1.656857,0 3,-1.343143 3,-3 0,-1.656857 -1.343143,-3 -3,-3 z m -0.214286,0.830357 c 0.02867,-0.003 0.06482,0.0017 0.09375,0 0.0034,0.01371 -0.02087,0.06252 -0.05357,0.133929 -0.208226,0.454885 -0.220037,0.987578 -0.02679,1.272321 0.03497,0.05163 0.06696,0.100757 0.06696,0.107143 0,0.0064 -0.03771,0.01339 -0.08036,0.01339 -0.100105,0 -0.194837,-0.06102 -0.388393,-0.214286 -0.08598,-0.06809 -0.197764,-0.125271 -0.241071,-0.133928 -0.06801,-0.01359 -0.08613,-0.0076 -0.174107,0.08036 -0.08185,0.08184 -0.107143,0.12597 -0.107143,0.200893 0,0.284117 0.33732,0.509957 0.964286,0.642857 0.851443,0.180458 1.061335,0.342458 1.084821,0.790178 0.02949,0.561429 -0.269421,0.984772 -0.924107,1.3125 -0.07814,0.03913 -0.127929,0.05432 -0.160714,0.06696 -0.01453,-0.0013 -0.02569,0.0013 -0.04018,0 -0.0056,-0.01736 -0.01339,-0.05763 -0.01339,-0.133928 0,-0.298192 -0.117535,-0.605143 -0.294643,-0.776786 -0.04754,-0.04608 -0.180651,-0.143721 -0.294642,-0.214286 -0.113988,-0.07056 -0.228836,-0.152528 -0.254465,-0.1875 -0.04247,-0.05803 -0.04602,-0.09369 -0.01339,-0.200893 0.05947,-0.195801 0.130252,-0.304855 0.267858,-0.428571 0.07214,-0.06486 0.144732,-0.11925 0.160714,-0.120536 0.01599,-0.0013 -0.09221,-0.03377 -0.254464,-0.06696 -0.162249,-0.03326 -0.399609,-0.102908 -0.522322,-0.147321 -0.224391,-0.08119 -0.527357,-0.25164 -0.642857,-0.375 -0.0049,-0.0052 -0.0091,-0.0088 -0.01339,-0.01339 0.165484,-0.659186 0.629893,-1.199464 1.245536,-1.459822 0.128816,-0.05448 0.261608,-0.09186 0.401786,-0.120535 0.06982,-0.01427 0.142191,-0.01946 0.214285,-0.02679 z m 2.008929,1.004465 c 0.05034,0.03111 0.24039,0.442285 0.294643,0.642857 0.07005,0.258938 0.06498,0.707057 0,0.964285 -0.02473,0.0979 -0.05642,0.189493 -0.06696,0.200893 -0.01054,0.0114 -0.04878,-0.05423 -0.09375,-0.133928 -0.04498,-0.07969 -0.18864,-0.249022 -0.308035,-0.375 -0.344632,-0.363656 -0.398825,-0.553522 -0.254465,-0.84375 0.0728,-0.146353 0.389615,-0.4794 0.428572,-0.455357 z"/>
</svg>

<svg xmlns="http://www.w3.org/2000/svg" width="22" height="22"><defs><style id="current-color-scheme" type="text/css">.ColorScheme-Text{color:#1e333d}</style></defs><path class="ColorScheme-Text" d="M11.008 3c-.166.01-.332.113-.6.273L7.5 5.016 4.602 6.752c-.639.358-.552.196-.602.883v1.258c0 .06.038.107.086.107H5v8h-.232c-.425 0-.768.378-.768.848V19h9.541A4 4 0 0 1 13 17a4 4 0 0 1 .133-1H12v-6h3v3.541A4 4 0 0 1 17 13V9h.914c.048 0 .086-.048.086-.107v-1.23c-.001-.725-.017-.56-.625-.925L14.5 5.016l-2.893-1.733c-.267-.21-.433-.293-.6-.283zM7 10h3v6H7v-6z" fill="currentColor"/><path class="ColorScheme-Text" d="M17 14a3 3 0 1 0 0 6 3 3 0 0 0 0-6zm-.214.83c.028-.003.065.002.093 0 .004.014-.02.063-.053.134-.208.455-.22.988-.027 1.273.035.051.067.1.067.107 0 .006-.038.013-.08.013-.1 0-.195-.06-.389-.214a.792.792 0 0 0-.24-.134c-.069-.014-.087-.008-.175.08-.082.082-.107.126-.107.201 0 .284.337.51.964.643.852.18 1.062.342 1.085.79.03.562-.27.985-.924 1.313-.078.039-.128.054-.16.067-.015-.002-.026.001-.04 0a.475.475 0 0 1-.014-.134c0-.298-.118-.605-.295-.777a2.253 2.253 0 0 0-.295-.214 1.34 1.34 0 0 1-.254-.188c-.043-.058-.046-.094-.013-.2a.834.834 0 0 1 .267-.43.712.712 0 0 1 .161-.12c.016-.001-.092-.034-.254-.067a4.567 4.567 0 0 1-.523-.147c-.224-.081-.527-.252-.643-.375l-.013-.013c.166-.66.63-1.2 1.246-1.46.128-.055.261-.092.401-.12.07-.015.143-.02.215-.028zm2.009 1.005c.05.03.24.442.294.643.07.259.065.707 0 .964a.978.978 0 0 1-.067.2c-.01.012-.048-.053-.093-.133a2.751 2.751 0 0 0-.308-.375c-.345-.364-.4-.554-.255-.844.073-.146.39-.48.429-.455z" fill="currentColor"/></svg>
